packages/core/src/svgs/tokens/branded/ZEE.svg

<svg width="24" height="24" viewBox="0 0 24 24" fill="none" xmlns="http://www.w3.org/2000/svg">
<path fill-rule="evenodd" clip-rule="evenodd" d="M8.11112 12.0713V5.91582C7.0887 6.56855 6.24731 7.46847 5.66471 8.53241C5.0821 9.59635 4.77708 10.79 4.77782 12.003C4.77782 14.2136 5.77059 16.1918 7.33447 17.5163L7.41336 17.4523C10.5988 14.8385 13.9466 12.0913 14.5299 11.6725C15.1789 11.2058 15.8677 11.5374 15.8888 11.9474V18.0896C16.9112 17.4369 17.7525 16.537 18.3351 15.4733C18.9177 14.4094 19.2227 13.216 19.2221 12.003C19.2221 9.78249 18.2199 7.79581 16.6433 6.47081C13.38 9.06691 9.89223 11.803 9.30445 12.2257C8.44556 12.8424 8.13224 12.4807 8.11112 12.0713ZM14.7778 18.6712V13.1141L8.48389 18.3129C9.55857 18.913 10.7692 19.2271 12 19.2251C12.9844 19.2251 13.9222 19.0275 14.7778 18.6712ZM7.57336 19.0645C8.89926 19.8978 10.4339 20.3388 12 20.3362C16.6022 20.3362 20.3333 16.6052 20.3333 12.003C20.3333 9.52129 19.2483 7.29303 17.5277 5.76637C18.7038 4.8275 19.811 3.93861 20.6938 3.22085C20.841 3.05419 21.0471 2.62085 20.6938 2.22086C20.3404 1.82086 19.7604 2.05419 19.5155 2.22086L16.2855 4.85472C14.9914 4.07707 13.5098 3.66734 12 3.66974C7.3978 3.66974 3.66672 7.40081 3.66672 12.003C3.66672 14.4802 4.74727 16.7046 6.46336 18.2308C5.29671 19.1885 4.19339 20.0918 3.30617 20.8152C3.15896 20.9817 2.95285 21.4157 3.30617 21.8163C3.64672 22.2023 4.10894 21.8868 4.36171 21.714L4.38949 21.6951L7.57336 19.0645ZM9.22223 10.6141V5.33417C10.1024 4.96766 11.0466 4.77957 12 4.78084C13.2133 4.78084 14.3566 5.08028 15.361 5.6086L9.22223 10.6141Z" fill="#1741C3"/>
</svg>

<svg xmlns="http://www.w3.org/2000/svg" width="24" height="24" fill="none" viewBox="0 0 24 24">
    <path fill="#1741C3" fill-rule="evenodd" d="M8.111 12.071V5.916a7.22 7.22 0 0 0-3.333 6.087c0 2.21.993 4.189 2.556 5.513l.08-.064c3.185-2.614 6.533-5.36 7.116-5.78.649-.466 1.338-.135 1.359.275v6.143a7.22 7.22 0 0 0 3.333-6.087 7.2 7.2 0 0 0-2.579-5.532c-3.263 2.596-6.75 5.332-7.339 5.755-.858.616-1.172.255-1.193-.155m6.667 6.6v-5.557l-6.294 5.199c1.075.6 2.285.914 3.516.912.984 0 1.922-.198 2.778-.554m-7.205.393a8.333 8.333 0 0 0 9.954-13.298 478 478 0 0 0 3.167-2.545c.147-.167.353-.6 0-1-.354-.4-.934-.167-1.178 0l-3.23 2.634A8.333 8.333 0 0 0 6.464 18.23c-1.167.957-2.27 1.86-3.158 2.584-.147.167-.353.6 0 1.001.34.386.803.07 1.056-.102l.027-.019zm1.65-8.45v-5.28A7.2 7.2 0 0 1 12 4.781c1.213 0 2.357.3 3.361.828z" clip-rule="evenodd"/>
</svg>
